X: 3
P: Karolinermarschen
R:march
C:Eric Sahlstr\"om
S:Eric Sahlstrm booklet
Z:From the book "Eric Sahlstr\"om"
M:2/4
L:1/16
%Q:1/4=80
F:http://www.nyckelharpa.org/music/karolinermarschen.abc 2004-03-20 17:13:07 UT
K:Dm
A,2 \
| "Dm"D2-DE FEFG | A4 "(Gm)"G2AG | "Dm"F2GF "C"E2C2 | "Dm"D6 DF \
| "Dm"A=BA^G A2B2 | "C"c4 "G"=B4 | "G"G3=B d2^c2 | "A7"A6 :|
|: A2 \
| "Bb"d4 d2d2 | "F"c4 A4 | "Gm"B2AB "(C7)"d2c2 | "F"A6 G2 \
| "Dm"F2EF A2G2 | "C"E4 C4 | "Dm"D6 :|
